app/img/info/quote.svg

<svg width="24" height="23" viewBox="0 0 24 23" fill="none" xmlns="http://www.w3.org/2000/svg">
<path d="M5.56942 10.6111V12.5526H10.396V23H0V12.5526H0.000251271V10.6111C0.000251271 6.66858 1.12896 3.7411 3.35522 1.90944C4.89526 0.642414 6.84461 0 9.14927 0V5.59663C7.89819 5.59663 5.56942 5.59663 5.56942 10.6111ZM22.7534 5.59663V0C20.4489 0 18.4996 0.642414 16.9595 1.90944C14.7333 3.7411 13.6044 6.6687 13.6044 10.6111V12.5526V23H24V12.5526H19.1735V10.6111C19.1736 5.59663 21.5024 5.59663 22.7534 5.59663Z" fill="#3CD993"/>
</svg>

<svg width="24" height="23" fill="none" xmlns="http://www.w3.org/2000/svg"><path d="M5.57 10.611v1.942h4.826V23H0V10.611C0 6.67 1.13 3.741 3.355 1.91 4.895.642 6.845 0 9.15 0v5.597c-1.25 0-3.58 0-3.58 5.014Zm17.183-5.014V0C20.45 0 18.5.642 16.96 1.91c-2.226 1.831-3.355 4.759-3.355 8.701V23H24V12.553h-4.826V10.61c0-5.014 2.328-5.014 3.58-5.014Z" fill="#3CD993"/></svg>
